public/static/img/bank/card_type_a.svg

<svg width="34" height="36" viewBox="0 0 34 36" fill="none" xmlns="http://www.w3.org/2000/svg">
<path d="M33.9636 17.2745C33.745 11.2392 30.0182 7.12635 30.0182 7.12635C24.2546 0.363288 16.863 0.994108 16.863 0.994108C8.96927 0.741616 4.11524 6.74983 4.11524 6.74983C0.79453 10.7316 0.41936 14.4009 0.41936 14.4009C-1.05326 20.5635 2.01598 25.8746 2.01598 25.8746C4.30227 30.0472 6.71395 31.9778 10.6286 33.8077C14.5441 35.6443 20.4967 35.3917 24.1925 33.5268C27.8878 31.6596 30.1429 29.6051 32.21 25.7182C34.2761 21.8277 33.9636 17.2745 33.9636 17.2745M15.2655 31.2813C15.2655 31.2813 9.06353 30.9342 5.64967 24.9259C5.64967 24.9259 2.70418 20.6888 3.92562 15.4095C5.14817 10.1303 7.99831 8.01369 8.56305 7.47659C9.12677 6.94006 12.7759 4.74667 15.2655 4.78707V11.0791H12.6347C12.6347 11.0791 9.06369 11.3003 8.93826 15.2835V21.1008C8.93826 21.1008 9.03252 24.6745 12.7283 25.0844H15.2655V31.2814M13.1345 21.3862C13.1345 21.3862 12.509 21.5443 12.4153 20.8181V15.2533C12.4153 15.2533 12.509 14.6531 12.9785 14.6531H20.7148C20.7148 14.6531 21.3739 14.5243 21.4357 15.2533V20.6587C21.4357 20.6587 21.5932 21.5125 20.9661 21.3862H13.1346M28.2017 25.4632C25.6952 29.3195 20.934 31.0915 18.711 31.2813V25.0843H21.6548C21.6548 25.0843 24.7888 24.4529 24.9755 21.1637V14.5569C24.9755 14.5569 24.4724 11.2392 20.9987 11.0791H18.711V4.78855C18.711 4.78855 22.626 5.1033 25.7891 8.04498C28.9527 10.9844 29.7663 13.9243 30.1119 15.506C30.4559 17.087 30.7068 21.6061 28.2017 25.4632Z" fill="#9E1F31"/>
</svg>

<svg width="34" height="36" fill="none" xmlns="http://www.w3.org/2000/svg"><path d="M33.964 17.274c-.219-6.035-3.946-10.148-3.946-10.148C24.255.363 16.863.994 16.863.994 8.969.742 4.115 6.75 4.115 6.75.795 10.732.42 14.4.42 14.4c-1.472 6.164 1.597 11.475 1.597 11.475 2.286 4.172 4.698 6.103 8.613 7.933 3.915 1.836 9.868 1.584 13.563-.281 3.696-1.867 5.95-3.922 8.018-7.809 2.066-3.89 1.754-8.444 1.754-8.444M15.266 31.282s-6.202-.347-9.616-6.355c0 0-2.946-4.237-1.724-9.516 1.222-5.28 4.072-7.396 4.637-7.933.564-.537 4.213-2.73 6.702-2.69v6.292h-2.63s-3.571.221-3.697 4.204v5.818s.095 3.573 3.79 3.983h2.537v6.197m-2.13-9.895s-.626.158-.72-.568v-5.565s.094-.6.564-.6h7.736s.659-.129.72.6v5.406s.158.854-.469.727h-7.831m15.067 4.077c-2.507 3.857-7.268 5.628-9.491 5.818v-6.197h2.944s3.134-.631 3.32-3.92v-6.607s-.503-3.318-3.976-3.478H18.71V4.79s3.915.314 7.078 3.256c3.164 2.94 3.977 5.88 4.323 7.461.344 1.581.595 6.1-1.91 9.957Z" fill="#9E1F31"/></svg>
